docs-docusaurus/static/img/infrahub-hori.svg

<svg viewBox="0 0 717 156" fill="none" xmlns="http://www.w3.org/2000/svg">
<path d="M160.079 48.836H173.737V107.853H160.079V48.836ZM254.516 48.836V107.853H243.303L213.879 72.0212V107.853H200.389V48.836H211.687L241.027 84.6677V48.836H254.516ZM294.784 59.7962V75.3936H322.1V86.3539H294.784V107.853H281.126V48.836H325.726V59.7962H294.784ZM385.221 107.853L373.839 91.4125H373.165H361.277V107.853H347.619V48.836H373.165C378.392 48.836 382.916 49.7072 386.738 51.4496C390.617 53.192 393.596 55.6651 395.675 58.8688C397.755 62.0726 398.795 65.8666 398.795 70.2507C398.795 74.6348 397.727 78.4287 395.591 81.6325C393.511 84.7801 390.532 87.197 386.654 88.8832L399.891 107.853H385.221ZM384.968 70.2507C384.968 66.9345 383.9 64.4052 381.764 62.6628C379.628 60.8642 376.509 59.9649 372.406 59.9649H361.277V80.5365H372.406C376.509 80.5365 379.628 79.6372 381.764 77.8386C383.9 76.04 384.968 73.5107 384.968 70.2507ZM461.129 95.2064H433.729L428.502 107.853H414.506L440.811 48.836H454.3L480.689 107.853H466.357L461.129 95.2064ZM456.83 84.8363L447.471 62.2412L438.113 84.8363H456.83ZM553.586 48.836V107.853H539.928V83.656H513.117V107.853H499.459V48.836H513.117V72.1055H539.928V48.836H553.586ZM606.416 108.865C597.985 108.865 591.409 106.532 586.687 101.867C582.022 97.2017 579.69 90.5413 579.69 81.8854V48.836H593.348V81.3796C593.348 91.9464 597.732 97.2298 606.5 97.2298C610.772 97.2298 614.032 95.9652 616.28 93.4359C618.528 90.8504 619.652 86.8316 619.652 81.3796V48.836H633.142V81.8854C633.142 90.5413 630.781 97.2017 626.06 101.867C621.395 106.532 614.847 108.865 606.416 108.865ZM702.621 77.1641C705.993 78.232 708.635 80.0306 710.546 82.5599C712.457 85.033 713.412 88.0963 713.412 91.7497C713.412 96.9207 711.389 100.911 707.342 103.722C703.351 106.476 697.506 107.853 689.806 107.853H659.285V48.836H688.119C695.314 48.836 700.822 50.213 704.644 52.9671C708.522 55.7213 710.461 59.459 710.461 64.1804C710.461 67.0469 709.759 69.6043 708.354 71.8526C707.005 74.1008 705.094 75.8713 702.621 77.1641ZM672.859 59.1218V73.0329H686.433C689.806 73.0329 692.363 72.4427 694.105 71.2624C695.848 70.0821 696.719 68.3397 696.719 66.0352C696.719 63.7307 695.848 62.0164 694.105 60.8923C692.363 59.7119 689.806 59.1218 686.433 59.1218H672.859ZM688.794 97.5671C692.391 97.5671 695.089 96.9769 696.888 95.7966C698.742 94.6162 699.67 92.7895 699.67 90.3164C699.67 85.4265 696.044 82.9815 688.794 82.9815H672.859V97.5671H688.794Z" fill="#0D3F54"/>
<path fill-rule="evenodd" clip-rule="evenodd" d="M60.5064 5.84311L115.169 41.7508V113.566L60.5064 149.474L5.84375 113.566V41.7508L60.5064 5.84311Z" fill="#0B97BB"/>
<mask id="mask0_307_15797" style="mask-type:luminance" maskUnits="userSpaceOnUse" x="5" y="5" width="111" height="145">
<path d="M60.5074 5.84311L115.17 41.7508V113.566L60.5074 149.474L5.84473 113.566V41.7508L60.5074 5.84311Z" fill="white"/>
</mask>
<g mask="url(#mask0_307_15797)">
<path fill-rule="evenodd" clip-rule="evenodd" d="M60.5074 30.8102L115.17 66.7179V138.533L60.5074 174.441L5.84473 138.533V66.7179L60.5074 30.8102Z" fill="url(#paint0_linear_307_15797)"/>
<path fill-rule="evenodd" clip-rule="evenodd" d="M60.7476 213.468L115.41 177.56V105.745L60.7476 69.8373L6.08496 105.745V177.56L60.7476 213.468Z" fill="url(#paint1_linear_307_15797)"/>
<path fill-rule="evenodd" clip-rule="evenodd" d="M60.5074 86.0746L115.17 121.982V193.798L60.5074 229.705L5.84473 193.798V121.982L60.5074 86.0746Z" fill="black"/>
</g>
<path fill-rule="evenodd" clip-rule="evenodd" d="M63.7156 0.959714L118.378 36.8674C120.023 37.9459 121.014 39.7818 121.014 41.7508V113.566C121.014 115.534 120.023 117.37 118.378 118.451L63.7156 154.359C61.7677 155.638 59.2459 155.638 57.2981 154.359L2.63542 118.451C0.990546 117.37 0 115.534 0 113.566V41.7508C0 39.7818 0.990546 37.9459 2.63542 36.8674L57.2981 0.959714C59.2459 -0.319905 61.7677 -0.319905 63.7156 0.959714ZM60.5068 5.84314L5.84418 41.7508V113.566L60.5068 149.474L115.169 113.566V41.7508L60.5068 5.84314Z" fill="url(#paint2_linear_307_15797)"/>
<path fill-rule="evenodd" clip-rule="evenodd" d="M60.5064 5.84311L115.169 41.7508V113.566L60.5064 149.474L5.84375 113.566V41.7508L60.5064 5.84311ZM60.5064 14.2338L12.8571 45.5348V109.782L60.5064 141.083L108.156 109.782V45.5348L60.5064 14.2338Z" fill="white"/>
<path fill-rule="evenodd" clip-rule="evenodd" d="M62.5199 40.6011L86.7743 54.6047C88.0203 55.3237 88.7876 56.6535 88.7876 58.0921V86.0987C88.7876 87.5373 88.0203 88.8664 86.7743 89.5854L62.5199 103.589C61.2739 104.308 59.7393 104.308 58.4933 103.589L34.2389 89.5854C32.9929 88.8664 32.2256 87.5373 32.2256 86.0987V58.0921C32.2256 56.6535 32.9929 55.3237 34.2389 54.6047L58.4933 40.6011C59.7393 39.8822 61.2739 39.8822 62.5199 40.6011ZM60.5066 44.0885L36.2522 58.0921V86.0987L60.5066 100.102L84.761 86.0987V58.0921L60.5066 44.0885Z" fill="white"/>
<path d="M64.7137 100.803H56.2979L56.2979 110.621H64.7137L64.7137 100.803Z" fill="white"/>
<path d="M49.0681 52.1923L39.29 57.7186L49.0681 63.2448L58.8462 57.7186L49.0681 52.1923Z" fill="white"/>
<path d="M60.7303 58.7849L50.9521 64.3112L60.7302 69.8374L70.5083 64.3112L60.7303 58.7849Z" fill="white"/>
<path d="M60.7625 45.5831L50.9844 51.1094L60.7625 56.6356L70.5406 51.1094L60.7625 45.5831Z" fill="white"/>
<path d="M72.4256 52.1743L62.6475 57.7005L72.4256 63.2267L82.2037 57.7005L72.4256 52.1743Z" fill="white"/>
<defs>
<linearGradient id="paint0_linear_307_15797" x1="58.8242" y1="37.8246" x2="58.8242" y2="93.9304" gradientUnits="userSpaceOnUse">
<stop stop-color="#0B97BB"/>
<stop offset="1" stop-color="#0B1828"/>
</linearGradient>
<linearGradient id="paint1_linear_307_15797" x1="59.0644" y1="206.454" x2="59.0644" y2="150.348" gradientUnits="userSpaceOnUse">
<stop stop-color="#0B97BB"/>
<stop offset="1" stop-color="#0B1828"/>
</linearGradient>
<linearGradient id="paint2_linear_307_15797" x1="-2.61207" y1="77.6585" x2="123.626" y2="77.6585" gradientUnits="userSpaceOnUse">
<stop stop-color="#264D59"/>
<stop offset="1" stop-color="#0C3E54"/>
</linearGradient>
</defs>
</svg>

<svg xmlns="http://www.w3.org/2000/svg" fill="none" viewBox="0 0 717 156">
  <path fill="#0D3F54" d="M160.079 48.836h13.658v59.017h-13.658V48.836Zm94.437 0v59.017h-11.213l-29.424-35.832v35.832h-13.49V48.836h11.298l29.34 35.832V48.836h13.489Zm40.268 10.96v15.598H322.1v10.96h-27.316v21.499h-13.658V48.836h44.6v10.96h-30.942Zm90.437 48.057-11.382-16.44h-12.562v16.44h-13.658V48.836h25.546c5.227 0 9.751.871 13.573 2.614 3.879 1.742 6.858 4.215 8.937 7.419 2.08 3.204 3.12 6.998 3.12 11.382 0 4.384-1.068 8.178-3.204 11.381-2.08 3.148-5.059 5.565-8.937 7.251l13.237 18.97h-14.67Zm-.253-37.602c0-3.317-1.068-5.846-3.204-7.588-2.136-1.799-5.255-2.698-9.358-2.698h-11.129v20.572h11.129c4.103 0 7.222-.9 9.358-2.698 2.136-1.799 3.204-4.328 3.204-7.588Zm76.161 24.955h-27.4l-5.227 12.647h-13.996l26.305-59.017H454.3l26.389 59.017h-14.332l-5.228-12.647Zm-4.299-10.37-9.359-22.595-9.358 22.595h18.717Zm96.756-36v59.017h-13.658V83.656h-26.811v24.197h-13.658V48.836h13.658v23.27h26.811v-23.27h13.658Zm52.83 60.029c-8.431 0-15.007-2.333-19.729-6.998-4.665-4.665-6.997-11.326-6.997-19.982V48.836h13.658V81.38c0 10.566 4.384 15.85 13.152 15.85 4.272 0 7.532-1.265 9.78-3.794 2.248-2.586 3.372-6.604 3.372-12.056V48.836h13.49v33.05c0 8.655-2.361 15.316-7.082 19.981-4.665 4.665-11.213 6.998-19.644 6.998Zm96.205-31.7c3.372 1.067 6.014 2.866 7.925 5.395 1.911 2.473 2.866 5.536 2.866 9.19 0 5.17-2.023 9.161-6.07 11.972-3.991 2.754-9.836 4.131-17.536 4.131h-30.521V48.836h28.834c7.195 0 12.703 1.377 16.525 4.131 3.878 2.754 5.817 6.492 5.817 11.213 0 2.867-.702 5.424-2.107 7.673-1.349 2.248-3.26 4.018-5.733 5.311Zm-29.762-18.043v13.91h13.574c3.373 0 5.93-.59 7.672-1.77 1.743-1.18 2.614-2.922 2.614-5.227 0-2.304-.871-4.019-2.614-5.143-1.742-1.18-4.299-1.77-7.672-1.77h-13.574Zm15.935 38.445c3.597 0 6.295-.59 8.094-1.77 1.854-1.18 2.782-3.007 2.782-5.48 0-4.89-3.626-7.335-10.876-7.335h-15.935v14.585h15.935Z"/>
  <path fill="#0B97BB" fill-rule="evenodd" d="m60.506 5.843 54.663 35.908v71.815l-54.663 35.908-54.662-35.908V41.751L60.506 5.843Z" clip-rule="evenodd"/>
  <mask id="a" width="111" height="145" x="5" y="5" maskUnits="userSpaceOnUse" style="mask-type:luminance">
    <path fill="#fff" d="m60.507 5.843 54.663 35.908v71.815l-54.663 35.908-54.662-35.908V41.751L60.507 5.843Z"/>
  </mask>
  <g fill-rule="evenodd" clip-rule="evenodd" mask="url(#a)">
    <path fill="url(#b)" d="m60.507 30.81 54.663 35.908v71.815l-54.663 35.908-54.662-35.908V66.718L60.507 30.81Z"/>
    <path fill="url(#c)" d="m60.748 213.468 54.662-35.908v-71.815L60.748 69.837 6.085 105.745v71.815l54.663 35.908Z"/>
    <path fill="#000" d="m60.507 86.075 54.663 35.907v71.816l-54.663 35.907-54.662-35.907v-71.816l54.662-35.907Z"/>
  </g>
  <path fill="url(#d)" fill-rule="evenodd" d="m63.716.96 54.662 35.907a5.839 5.839 0 0 1 2.636 4.884v71.815a5.846 5.846 0 0 1-2.636 4.885l-54.662 35.908a5.846 5.846 0 0 1-6.418 0L2.635 118.451A5.846 5.846 0 0 1 0 113.566V41.751c0-1.97.99-3.805 2.635-4.884L57.298.96a5.844 5.844 0 0 1 6.418 0Zm-3.21 4.883L5.845 41.751v71.815l54.663 35.908 54.662-35.908V41.751L60.507 5.843Z" clip-rule="evenodd"/>
  <path fill="#fff" fill-rule="evenodd" d="m60.506 5.843 54.663 35.908v71.815l-54.663 35.908-54.662-35.908V41.751L60.506 5.843Zm0 8.39L12.857 45.536v64.247l47.65 31.301 47.649-31.301V45.535l-47.65-31.301Z" clip-rule="evenodd"/>
  <path fill="#fff" fill-rule="evenodd" d="m62.52 40.601 24.254 14.004a4.026 4.026 0 0 1 2.014 3.487V86.1a4.025 4.025 0 0 1-2.014 3.486L62.52 103.59a4.028 4.028 0 0 1-4.027 0L34.24 89.585a4.025 4.025 0 0 1-2.013-3.486V58.092c0-1.438.767-2.768 2.013-3.487L58.493 40.6a4.028 4.028 0 0 1 4.027 0Zm-2.013 3.488L36.252 58.092V86.1l24.255 14.003L84.76 86.099V58.092L60.507 44.09Z" clip-rule="evenodd"/>
  <path fill="#fff" d="M64.714 100.803h-8.416v9.818h8.416v-9.818ZM49.068 52.192 39.29 57.72l9.778 5.526 9.778-5.526-9.778-5.527ZM60.73 58.785l-9.778 5.526 9.778 5.526 9.778-5.526-9.778-5.526ZM60.763 45.583l-9.779 5.526 9.779 5.527 9.778-5.527-9.778-5.526ZM72.426 52.174 62.647 57.7l9.779 5.527 9.778-5.526-9.778-5.527Z"/>
  <defs>
    <linearGradient id="b" x1="58.824" x2="58.824" y1="37.825" y2="93.93" gradientUnits="userSpaceOnUse">
      <stop stop-color="#0B97BB"/>
      <stop offset="1" stop-color="#0B1828"/>
    </linearGradient>
    <linearGradient id="c" x1="59.064" x2="59.064" y1="206.454" y2="150.348" gradientUnits="userSpaceOnUse">
      <stop stop-color="#0B97BB"/>
      <stop offset="1" stop-color="#0B1828"/>
    </linearGradient>
    <linearGradient id="d" x1="-2.612" x2="123.626" y1="77.659" y2="77.659" gradientUnits="userSpaceOnUse">
      <stop stop-color="#264D59"/>
      <stop offset="1" stop-color="#0C3E54"/>
    </linearGradient>
  </defs>
</svg>
